X:1
T:Search Me, O God (Simpson)
T:Search Me, O God (Simpson)
T:Albert Benjamin Simpson
T:Albert Benjamin Simpson, 1897
T:Public Domain Courtesy of the Cyber Hymnal™
T:Public Domain Courtesy of the Cyber Hymnal™
C:Albert Benjamin Simpson
Z:Public Domain
Z:Courtesy of the Cyber Hymnal™
%%score ( 1 2 ) ( 3 4 )
L:1/8
Q:1/4=115
M:4/4
K:Db
V:1 treble 
V:2 treble 
V:3 bass 
V:4 bass 
V:1
 [DF]4 D2 [CE]2 | [DF]6 z2 | [DG]2 [DF][EG] [FA]2 [EG]2 | [DF]6 z2 | [DB]4 [DA]2 [DA]2 | %5
w: 1.~Search me, O|God,|search me and know my|heart;|Try me and|
w: 2.~Thou art the|same|to- day and yes- ter-|day;|Oh, make Thy|
w: 3.~Take my poor|heart|and on- ly let me|love|The things that|
w: 4.~Help me to|lay|my trea- sures up on|high;|Teach me to|
w: 5.~Oh, let my|work|a- bide the test- ing|day|That shall con-|
 [CA]6 [D=G]2 | [D=G]2 [DG]2 [DF]2 [DG]2 | [CA]6 z2 | [DF]4 D2 [CE]2 | [DF]4 [DF]4 | %10
w: prove me|in the hid- den|part;|Cleanse me and|make me|
w: life in|me the same al-|way;|Take from my|heart the|
w: al- ways|shall a- bid- ing|prove;|Bind all my|heart- strings|
w: seek my|fu- ture in the|sky;|Give me my|por- tion|
w: sume the|stub- ble and the|hay;|Oh, build my|house up-|
 [FA]2 [FA]2 [D_c]2 [Dc]2 | [DB]6 [DB]2 | [Gd]2 [DB]2 [DA]2 [DB]2 | [DA]4 [DF]2 [A,D]2 | E8 | %15
w: ho- ly, as Thou|art, And|lead me in the|way ev- er-|last-|
w: things that pass a-|way; Lead,|lead me in the|way ev- er-|last-|
w: to the world a-|bove, And|lead me in the|way ev- er-|last-|
w: yon- der by and|by, And|lead me in the|way ev- er-|last-|
w: on the rock, I|pray, And|lead me in the|way ev- er-|last-|
 D6 z2 ||"^Refrain" [DF]4 A4 | [FA]4 d4 | [DB][DB][DA][DB] [Dd]2 [Dc][DB] | [DB]4 [DA]4 | %20
w: ing.|||||
w: ing.|Lead me,|lead me,|lead me in the way ev- er-|last- ing;|
w: ing.|||||
w: ing.|||||
w: ing.|||||
 [EB][DA][CG][DF] [DF]2 [DF]2 | [CE][CE][DE][DE] [CA]4 | [DF][DE][DF][CG] [DA]2 [FA]2 | %23
w: |||
w: Keep me from the things that|wi- ther and de- cay;|Give to me the things that|
w: |||
w: |||
w: |||
 [Af][Ad][Ac][=Gd] [Ae]3 [_Gc] | [Fd][Ad][Ac][GB] [FA]2 [Gc][Fd] | [Ge]4 [Fd]4 |] %26
w: |||
w: can- not pass a- way, And|lead me in the way ev- er-|last- ing.|
w: |||
w: |||
w: |||
V:2
 x4 D2 x2 | x8 | x8 | x8 | x8 | x8 | x8 | x8 | x4 D2 x2 | x8 | x8 | x8 | x8 | x8 | (B,4 C4) | %15
 D6 x2 || x4 (D2 F2) | x4 (D2 F2) | x8 | x8 | x8 | x8 | x8 | x8 | x8 | x8 |] %26
V:3
 [D,A,]4 [D,F,]2 [D,G,]2 | [D,A,]6 z2 | [D,B,]2 [D,A,][D,B,] [A,,D]2 [A,,C]2 | [D,A,]6 z2 | %4
w: ~ ~ ~|~|~ ~ ~ ~ ~|~|
 G,4 [F,A,]2 [F,A,]2 | [E,A,]6 [E,B,]2 | [E,B,]2 [E,B,]2 [E,A,]2 [E,B,]2 | [A,,A,]6 z2 | %8
w: ~ ~ ~|~ ~|~ ~ ~ ~|~|
 [D,A,]4 [D,F,]2 [D,G,]2 | [D,A,]4 [D,A,]4 | [D,_C]2 [D,C]2 [F,A,]2 [F,A,]2 | G,6 [G,,G,]2 | %12
w: ~ ~ ~|~ ~|~ ~ ~ ~|~ ~|
 [B,,G,]2 [D,G,]2 [D,F,]2 [D,G,]2 | [D,F,]4 [D,A,]2 [D,F,]2 | G,8 | [D,F,]6 z2 || A,4 A,4 | %17
w: ~ ~ ~ ~|~ ~ ~|~|~|Lead me,|
 D2 A,2 F,2 A,2 | [G,,G,][G,,G,][G,,G,][G,,A,] [G,B,]2 [G,A,]G, | [D,G,]4 [D,F,]4 | %20
w: Sav- ior, Sav- ior|lead me, * * * * *||
 G,[F,A,][E,A,][D,A,] [D,A,]2 [D,A,]2 | [E,A,][E,A,][E,=G,][B,,G,] [A,,A,]4 | %22
w: ||
 [D,A,][D,G,][D,A,][E,A,] [F,A,]2 [D,A,]2 | [D,D][F,D][E,E][E,D] [A,C]3 [A,,A,] | %24
w: ||
 [D,A,][F,D][G,D][G,D] [A,D]2 [A,E][A,D] | C4 [D,A,]4 |] %26
w: ||
V:4
 x8 | x8 | x8 | x8 | G,4 x4 | x8 | x8 | x8 | x8 | x8 | x8 | G,6 x2 | x8 | x8 | (G,,4 A,,4) | x8 || %16
 D,2 E,2 F,2 D,2 | D,4 D,4 | x7 G, | x8 | G, x7 | x8 | x8 | x8 | x8 | (A,2 A,,2) x4 |] %26

